projects/oblique/icons/Eye.svg

<?xml version="1.0" encoding="UTF-8"?><svg id="a" xmlns="http://www.w3.org/2000/svg" viewBox="0 0 24 24"><path d="M8.82861,12.00025c0,1.74805,1.42285,3.1709,3.17139,3.1709s3.17139-1.42285,3.17139-3.1709-1.42285-3.1709-3.17139-3.1709-3.17139,1.42285-3.17139,3.1709ZM13.67139,12.00025c0,.9209-.75,1.6709-1.67139,1.6709s-1.67139-.75-1.67139-1.6709.75-1.6709,1.67139-1.6709,1.67139.75,1.67139,1.6709ZM22.68555,11.80103c-1.79004-4.04395-5.98438-6.65625-10.68555-6.65625S3.10449,7.75708,1.31445,11.80103l-.13428.30371.13428.30371c1.79004,4.04395,5.98389,6.65723,10.68555,6.65723s8.89551-2.61328,10.68555-6.65723l.13428-.30371-.13428-.30371ZM17.46045,12.10474c0,2.78687-2.10016,5.08911-4.79999,5.41675-.22064.01343-.43689.04419-.66046.04419s-.43982-.03076-.66046-.04419c-2.69983-.32764-4.79999-2.62988-4.79999-5.41675s2.10028-5.08862,4.80035-5.41602c.22052-.01343.43665-.04395.6601-.04395s.43958.03052.6601.04395c2.70007.32739,4.80035,2.62915,4.80035,5.41602ZM2.82764,12.10474c.73621-1.5105,1.88586-2.75708,3.27972-3.68726-.67249,1.07056-1.06781,2.33228-1.06781,3.68726s.39539,2.6167,1.06793,3.68774c-1.39392-.93066-2.54364-2.17725-3.27985-3.68774ZM17.89252,15.79248c.67255-1.07104,1.06793-2.33276,1.06793-3.68774s-.39532-2.6167-1.06781-3.68726c1.39386.93018,2.54352,2.17676,3.27972,3.68726-.73621,1.5105-1.88593,2.75708-3.27985,3.68774Z"/></svg>

<svg xmlns="http://www.w3.org/2000/svg" viewBox="0 0 24 24"><title>Eye</title><path d="M8.82861,12.00025A3.17139,3.17139,0,1,0,12,8.82935,3.17509,3.17509,0,0,0,8.82861,12.00025Zm4.84278,0A1.67139,1.67139,0,1,1,12,10.32935,1.67346,1.67346,0,0,1,13.67139,12.00025Z" fill="#171717"/><path d="M22.68555,11.801A11.55468,11.55468,0,0,0,12,5.14478,11.55468,11.55468,0,0,0,1.31445,11.801l-.13427.30371.13427.30371A11.555,11.555,0,0,0,12,19.06568a11.555,11.555,0,0,0,10.68555-6.65723l.13427-.30371Zm-5.2251.30371a5.46612,5.46612,0,0,1-4.8,5.41675c-.22064.01342-.43689.04419-.66046.04419s-.43982-.03077-.66046-.04419A5.45594,5.45594,0,0,1,11.3399,6.68872c.22052-.01343.43665-.04394.6601-.04394s.43958.03051.6601.04394A5.46532,5.46532,0,0,1,17.46045,12.10474Zm-14.63281,0A9.41953,9.41953,0,0,1,6.10736,8.41748a6.90065,6.90065,0,0,0,.00012,7.375A9.424,9.424,0,0,1,2.82764,12.10474Zm15.06488,3.68774a6.90065,6.90065,0,0,0,.00012-7.375,9.41953,9.41953,0,0,1,3.27972,3.68726A9.424,9.424,0,0,1,17.89252,15.79248Z" fill="#171717"/></svg>
